!!!OTL-incipit: Es geht nix ueber die Gemuetlichkeit, ja, ja, ja, ja
!!!ARE: Europa, Mitteleuropa, Deutschland, Ober - Franken, Kuemmersreuth
!!!SCT: V0002F
!!!TXL: @@DE
!!!YEM: Copyright 1995, estate of Helmut Schaffrath.
**kern	**text
*ICvox	*
*M2/4	*
*k[f#]	*
*G:	*
{8d	Es
=1	=1
8g	gibt
8g	nix
16g	Ӯ-
16g	-ber
16g	die
16a	Ge-
=2	=2
8g	-mӮt-
8f#	-lich-
8f#	-keit
8a	ja,
=3	=3
4e	ja,
8r	.
8f#	ja,
=4	=4
4d	ja,
8r}	.
{8d	die
=5	=5
16g	Hu-
16g	-sn
8g	vull-
16g	-gschis-
16g	-sn
16g	und
16a	die
=6	=6
16g	We-
16f#	-stn
8f#	vull-
8f#	-gspeit
8a	ja,
=7	=7
4e	ja,
8r	.
8f#	ja,
=8	=8
4d	ja.
8r}	.
==	==
!!!AGN: Geselligkeits - Lied, Gemuetlichkeit
!!!ONB: ESAC (Essen Associative Code) Database: VARIANT
!!!AMT: simple duple
!!!AIN: vox
!!!EED: Helmut Schaffrath
!!!EEV: 1.0
!!!GTL: Gemuetlichkeit
!!!source: Heigl, U.; Liertz, M. J.. et al.: Registeer un Beispielsammlung zu den Forschungsexkursionen des Instituts fӮr Volkskunde nach Oberfranken. Maschinenschriftliches Manuskript, MӮnchen 1982.
!!!page: 84
!!!ENC: Anna Maria Matuszewska
!!!EEV: 2025/04/01
*-	*-
